X:10530
T:Mazurka
M:3/4
L:1/8
C:Traditional
S:Dominig Bouchaud
R:M
A:Brittany
D:Musiques, Chants et Danses De Bretagne
Z:Transcribed by Joe Root
K:Em
E FE|:B2 Bc de|B2 zB cB|A2 BA GF|G2 EE FE|!
B2 Bc de|B2z B cB|A2 BA GF|1E2 zE FE:|2E3z ed||!
|:c2 cG cd|e2ze dc|B2 BA Bc|BB AB ed|!
c2 cG cd|e2ze dc|Bc BG FG|1(3FEF E2 ed:| 2F3 z3||!
